X:1
T: Barbara Rae
C:
R:Strathspey
Q:128
K:D
M:4/4
L:1/16
|:A,2|F6E2 FA3 E3D|d3c d3A GF3 E3D|FA3 d3A BA3 F3A|GF3 E3D D6A,2|
F6E2 FA3 E3D|d3c d3A GF3 E3D|FA3 d3A BA3 F3A|Bcd2 A3E D6A2|
FA3 f3A BF3 E3A|FA3 a3f gfed dcBA|FA3 d3A BA3 F3A|GF3 E3D D6A2|
FA3 f3A BF3 E3A|FA3 a3f gfed dcBA|FA3 d3A BA3 F3A|Bcd2 A3E D6:|
